X: 318
T: Da liaoxian
L: 1/8
M: 2/4
K: G
A B A G [I:setbarnb 1]| 
D2D2 | 
A B A G | 
D4 | 
A B A G | 
D4 | 
A A E G | 
A B A G | 
E E A E | 
D3E | 
C4 | 
C B, D B, | 
A,4 |]

@@@ Tune index: 9192
